X: 910
T: Soppin' the Gravy
C:Art Stamper
B: jims roots
M:2/4
L:1/8
Q: 1/4=100
K:D
V:1 
%N:Fiddlers Fakebook copied by Jim Kendrick
|:fg|"D"afbf afde | fded BcdB | AGFE DCB,G, | "A7"A,2 A,B, "D"CA,B,C |
"D"D2 DE FDB,D | "G"GFGA BcdB | "A7"ABde !slide![d2f2] e2| [d6f6]:|
|:"D"[A2e2]| ([e2g2]!slide![f6a6]) | fedB ABAB | dABd AGFD | "A7"[A,6E6] C2 |
"D"D2 DF EDFE | "G"DFAd BcdB | "A7"Acea fded | "D"Bcdf ed-[d2f2]:|
% abcbook-tune_id 6298c2875e67daa46d189640


% abcbook-boost 0
% abcbook-tablature 
% abcbook-transpose 
% abcbook-lastupdated 1654178440657
% abcbook-soundfonts 
% abcbook-repeats 1


